X:1
T:Mrs. Gordon of Cairness
R:reel
O:19th century Scotland
B:William Christie Collection, 1820
D:Highland Classic, Carl MacKenzie, 2007
S:http://www.cranfordpub.com/recordings/carl.htm
Z:psc -  http://www.cranfordpub.com
L:1/8
Q:333
M:C|
K:A
E|A2 cA ECAE|DFCE B,GBG|A2 cA ECAE|FABG A2 A:|
||d|c2 ec Acec|dfBf dBbg|a2 ed cAec|dBbg a2 ed|
c2 ec Acec|dfBf dBbg|aecA dfBd|ceEG A2 A|]
